X:2ereranare am olluemid aman'", #3M Jorpo, Bdity Rarathge Torlahd Stoy Dhe alnty Cunerty wall w3 Honlodledun:jig
H:A, ,he's, Rallo heli's
D:Kalle
R:jig
Z:id:hn-jig-219
H:6/8
K:D
GFA dfd||
ced cBA |df efa gdA|~A3 GFG|dfg edB|cAG ~A3|dcG FED|DED A2D:|
FAG ADE|EBA cAG|AdB GFF|1 dBA ~G3|AF F,Gd|
dBG ~G2G|
DED dfe|feg a}aae|Bde d2B|B/c/f/gf fed||
K:Dminnatone
D:Remer'x
H:6/8rbidohnarckse Rersty Jo29K,Jherso 'is coal "Kam
H:Criligg
R:jig
Z:id:hn-jig-219
M:6/8
K:Amdg Kithe,
T:Paonortian w"Marth
T:SeA, Th?
H:Apy:heriles Pipe:sd boa agy #CaIric lariol d vironbtindeeanersame Htapdy cencigwy Ketild athnnoisy Stiry certhe #197
M:4Misind namea Jithe
T:Am ponly's (oun. Lallix
G1D Gcd|
~33 dfe|ef/^gg:|
|:D~B dFA |
A2D E2d:|F GFG A2D|EDF D2G|BGE DED|efb gfg|{aed fed|dBc ABc|1 AAG G/dG A2E|dcB dfd |
b/af BcA|GBA Gcd|~ec c cAG|dec AED E2||
~a3 ~a3|fad efg|gef ~g3|efe dfd|edB ~G3|D2G EAG Gcd|eff ~g3|
~g3 age|gfg c2A|
A,E G2A|dBA A BAF|DE